X:1
T:Les compagnonns de la Marjolaine
T:W. Peterson-Berger (1867-1942)
T:Les compagnons de la Marjolaine
T:Fransk folkvisa
T:©PA Aglert
C:W. Peterson-Berger (1867-1942)
Z:©PA Aglert
%%score [ ( 1 2 ) ( 3 4 ) ]
L:1/8
Q:1/4=100
M:6/8
K:C
V:1 treble nm="S A"
V:2 treble 
V:3 bass nm="T B"
V:4 bass 
V:1
"^Con moto"!mf! Bcd cde | def e3 |!p! Bcd cde | dcB A z!f! A | A z A !fermata!A3!fine! || %5
w: |||||
w: Tra la la la la la|la la la la.|Tra la la la la la|la la la la. Tra|la la la.|
w: |||||
w: |||||
!p! EEE A2 A | B2 B c3 |!mf! c2 B ABc | B2 A ^G2 E |!p! EEE A2 A | B2 B c3 |"^poco" d3!f! e3 | %12
w: 1.Qui est c'qui passe i-|ci si tard,|com- pag- nons de la|Mar- jo- lai- ne?|Qui est c'qui passe i-|ci si tard,|gai, gai|
w: 2.Ce sont les che- va-|liers de gué,|com- pag- nons de la|Mar- jo- lai- ne.|Ce sont les che- va-|lers de gué|gai, gai|
w: 3.Que de- man- dent ces|cha- va- liers,|com- pag- nons de la|Mar- jo- lai- ne?|Que de- man- dent ces|che- va- liers|gai, gai|
w: 4.U- ne fil- let- te|à ma- rier,|com- pag- nons de la|Mar- jo- lai- ne.|U- ne fil- let- te|à ma- rier|gai, gai|
 BBB A3 :| %13
w: des- sus le quai?|
w: des- sus le quai.|
w: des- sus le quai?|
w: des- sus le quai.|
V:2
 EEE EEE | EEE E3 | EEE EEE | EEE A z C | C z C C3 || EEE E2 E | E2 E E3 | F2 F FFF | F2 F E2 E | %9
 EEE E2 E | E2 E E3 | A3 A3 | ^GGG A3 :| %13
V:3
!mf! ^G,A,B, A,B,C | B,CD C3 |!p! ^G,A,B, A,B,C | B,A,^G, A, z!f! E, | E, z E, !fermata!E,3 || %5
!p! E,E,E, A,2 A, | B,2 B, C3 |!mf! A,2 A, CB,A, | B,2 B, B,2 E, |!p! E,E,E, A,2 A, | B,2 B, C3 | %11
"^poco" A,3!f! C3 | EEE A,3 :| %13
V:4
 E,E,E, E,E,E, | E,E,E, E,3 | E,E,E, E,E,E, | E,E,E, A, z A,, | A,, z A,, A,,3 || E,E,E, C,2 C, | %6
 E,2 E, A,3 | F,2 F, F,F,F, | D,2 D, E,2 E, | E,E,E, C,2 C, | E,2 E, A,3 | F,3 E,3 | E,E,E, A,3 :| %13

